!! 00000] TT[WS
!!!OTL: Wugeng quanfu
!!!ARE: Asia, China,ÿShanxi Yongji
!! Ethnic Group: Han
!! WI, 198
!!!SCT: J0237
!!!YEM: Copyright 1995, estate of Helmut Schaffrath.
**kern
*ICvox
*Ivox
*M2/4
*k[f#]
*G:
{4a
8a
8dd
=1
8a
8g
8f#
8g
=2
4a
4r
=3
8dd
8cc
8dd
8ee
=4
4dd
4r}
=5
{4a
8a
8dd
=6
8a
8g
8fn
8a
=7
4g
8g
8g
=8
8a
8g
8a
8cc
=9
2fn
=10
4g
4r}
=11
{4dd
8ee
8dd
=12
4cc
8cc
8a
=13
4dd
4dd
=14
8fn
8r
4r
=15
4a
8a
8dd
=16
8a
8g
8fn
8a
=17
4g}
{8g
8g
=18
8a
8dd
8fn
8g
=19
4a
4r
=20
4.g
8a
=21
4.cc
8b
=22
4a
4cc
=23
8a
8cc
8a
8g}
=24
{4fn
8fn
8g
=25
8e
8d
4c
=26
4d
8d
8d
=27
8g
8fn
8g
8a
=28
4.d
8c
=29
4d
4r}
==
!!!AGN: Xiaodiao. Qingge, Aisu
!!!ONB: ESAC (Essen Associative Code) Database: CHINA
!!!AMT: simple duple
!!!AIN: vox
!!!EED: Helmut Schaffrath
!!!EEV: 1.0
*-
